!!!!SEGMENT: pl-kk--kk-i-81--005_anonim--missa-pastoralis-agnus-dei.krn
!!!cenid: 17xx:2307
!!!COM: Anonim
!!!COM-rismid: pe30004985
!!!CDT:
!!!CNT:
!!!OPR: Missa Pastoralis
!!!OTL: Agnus Dei
!!!OMV: 005
!!!PDT:
!!!AGN: Sacred; Mass
!!!SMS-siglum: PL-Kk
!!!SMS-shelfmark: Kk.I.81
!!!SMS-shelfwork: 001-005 M
!!!SMS-variant:
!!!SMS-altvar:
!!!NIFC-rismid: 1001155824
!!!URL-scan: http://repozytorium.nifc.pl/skany/pl-kk-nut--i-81
!!!ONB-nifc: UWAGA: części Mszy: 1. Kyrie, 2. Et in terra, 3. Sanctus, 4. Benedictus, 5. Agnus Dei.
!!!AIN: 1 alto 2 empty 1 tenor 1 vox
!!!key:
**kern	**text	**kern	**text	**kern	**text	**kern	**text	**text	**kern	**text
*part5	*part5	*part4	*part4	*part3	*part3	*part2	*part2	*part2	*part1	*part1
*staff5	*staff5	*staff4	*staff4	*staff3	*staff3	*staff2	*staff2	*staff2	*staff1	*staff1
*Iempty	*	*Iempty	*	*Itenor	*	*Ialto	*	*	*Ivox	*
*I"Baſso eripieno	*	*I"Baſso	*	*I"Tenore	*	*I"Alto	*	*	*I"Canto	*
*I'B rip	*	*I'B	*	*I'T	*	*I'A	*	*	*I'C	*
*clefF4	*	*clefF4	*	*clefC4	*	*clefC3	*	*	*clefC1	*
*k[]	*	*k[]	*	*k[]	*	*k[]	*	*	*k[]	*
*C:	*	*C:	*	*C:	*	*C:	*	*	*C:	*
*M3/2	*	*M3/2	*	*M3/2	*	*M3/2	*	*	*M3/2	*
=1	=1	=1	=1	=1	=1	=1	=1	=1	=1	=1
1C	A-	1C	A-	1c	A-	1g	A-	.	1ee	A-
*	*	*	*	*	*	*2\right	*	*	*2\right	*
2BB/	-gnus	2BB/	-gnus	2G/	-gnus	2f\	-gnus	.	2dd\	-gnus
=2	=2	=2	=2	=2	=2	=2	=2	=2	=2	=2
2C/	De-	2C/	De-	1G	De-	2e\	De-	.	2cc\	De-
2GG/	.	2GG/	.	.	.	2d\	.	.	2b\	.
2C/	.	2C/	-i	2E/	-i	2c\	-i	.	2g\	-i
=3	=3	=3	=3	=3	=3	=3	=3	=3	=3	=3
1G	a-	1G	a-	1B	a-	(4B\	a-	.	4g\	a-
.	.	.	.	.	.	4c\)	.	.	4a\	.
.	.	.	.	.	.	(4d\	.	.	4b\	.
.	.	.	.	.	.	4e\)	.	.	4cc\	.
*	*	*	*	*2\right	*	*	*	*	*	*
2GG/	-gnus	2GG/	-gnus	2B\	-gnus	(4f\	-gnus	.	4dd\	-gnus
.	.	.	.	.	.	4e\)	.	.	4cc\	.
=4	=4	=4	=4	=4	=4	=4	=4	=4	=4	=4
2C/	De-	2C/	De-	1G	De-	2e\	De-	.	2cc\	De-
2GG/	.	2GG/	.	.	.	2d\	.	.	2b\	.
2C/	-i	2C/	-i	2G/	-i	2e\	-i	.	2cc\	-i
=5	=5	=5	=5	=5	=5	=5	=5	=5	=5	=5
2r	.	2r	.	2r	.	4g\	qui	.	2r	.
.	.	.	.	.	.	4f\	.	.	.	.
2r	.	2r	.	2r	.	4e\	tol-	.	2r	.
.	.	.	.	.	.	4d\	.	.	.	.
4r	.	4r	.	4r	.	4c\	-lis	.	4r	.
4C/	pec-	4C/	pec-	4G/	pec-	4c\	pec-	.	4ee\	pec-
=6	=6	=6	=6	=6	=6	=6	=6	=6	=6	=6
*2\right	*	*	*	*	*	*	*	*	*	*
!	!	!	!	!LO:TX:a:t=f	!	!	!	!	!	!
2F\	-ca-	2C/	-ca-	2F/	-ca-	2a\	-ca-	.	2ff\	-ca-
2C/	-ta	2C/	-ta	2G/	-ta	2g\	-ta	.	2ee\	-ta
4r	.	4r	.	2G/	qui	4r	.	.	2ee\	qui
4C/	qui	4C/	qui	.	.	4g\	qui	.	.	.
=7	=7	=7	=7	=7	=7	=7	=7	=7	=7	=7
2BB/	tol-	2BB/	tol-	2G/	tol-	2f\	tol-	.	2dd\	tol-
2BB/	-lis	2BB/	-lis	2G/	-lis	2f\	-lis	.	2dd\	-lis
2C/	pec-	2C/	pec-	2G/	pec-	2e\	pec-	.	2cc\	pec-
!	!	!	!	!	!	!LO:LB:g=original	!	!	!	!
=8	=8	=8	=8	=8	=8	=8	=8	=8	=8	=8
1G	-ca-	1G	-ca-	1G	-ca-	1d	-ca-	.	1b	-ca-
2C/	-ta	2C/	-ta	2G/	-ta	2e\	-ta	.	2cc\	-ta
!LO:LB:g=original	!	!	!	!	!	!	!	!	!LO:LB:g=original	!
=9	=9	=9	=9	=9	=9	=9	=9	=9	=9	=9
2BB/	pec-	2BB/	pec-	2G/	pec-	2f\	pec-	.	2dd\	pec-
2BB/	-ca-	2BB/	-ca-	2G/	-ca-	2f\	-ca-	.	2dd\	-ca-
2C/	-ta	2C/	-ta	2G/	-ta	2e\	-ta	.	2cc\	-ta
!	!	!LO:N:vis=0	!	!LO:LB:g=original	!	!	!	!	!	!
=10	=10	=10	=10	=10	=10	=10	=10	=10	=10	=10
*	*	*2\right	*	*	*	*	*	*	*	*
2G\	mun-	2G\	mun-	2G/	mun-	2d\	mun-	.	2b\	mun-
2GG/	-di	2GG/	-di	2G/	-di	2d\	-di	.	2b\	-di
2r	.	2r	.	2r	.	2r	.	.	2r	.
=11	=11	=11	=11	=11	=11	=11	=11	=11	=11	=11
2r	.	2r	.	2r	.	2r	.	.	4g/	mi-
.	.	.	.	.	.	.	.	.	4a/	.
2G\	mi-	2G\	mi-	4G/	mi-	2g\	mi-	.	4b/	.
.	.	.	.	4A/	.	.	.	.	4cc/	.
2GG/	-se-	2GG/	-se-	4B/	-se-	2g\	-se-	.	4dd\	-se-
.	.	.	.	4c/	.	.	.	.	4ee\	.
=12	=12	=12	=12	=12	=12	=12	=12	=12	=12	=12
1BB	-re-	1BB	-re-	1d	-re-	1g	-re-	.	1ff	-re-
2C/	-re	2C/	-re	2c\	-re	2g\	-re	.	2ee\	-re
=13	=13	=13	=13	=13	=13	=13	=13	=13	=13	=13
4D/	mi-	4D/	mi-	0.r	.	0.r	.	.	4ff\	mi-
4C/	.	4C/	.	.	.	.	.	.	4ee\	.
4BB/	-se-	4BB/	.	.	.	.	.	.	4dd\	.
4D/	.	4D/	.	.	.	.	.	.	4ff\	.
4C/	.	4C/	-se-	.	.	.	.	.	4ee\	-se-
4BB/	.	4BB/	.	.	.	.	.	.	4dd\	.
=14	=14	=14	=14	=14	=14	=14-	=14	=14	=14	=14
2C/	-re-	2C/	-re-	.	.	.	.	.	2cc\	-re-
2GG/	.	2GG/	.	.	.	.	.	.	2b\	.
2C/	-re	2C/	-re	.	.	.	.	.	2cc\	-re
=15	=15	=15	=15	=15	=15	=15	=15	=15	=15	=15
0.r	.	0.r	.	(4d\	mi-	4f\	mi-	.	0.r	.
.	.	.	.	4c\	.	4e\	.	.	.	.
.	.	.	.	4B\)	.	4d\	.	.	.	.
.	.	.	.	(4d\	-se-	4f\	[se]	.	.	.
.	.	.	.	4c\)	.	4e\	.	.	.	.
.	.	.	.	4B\	.	4d\	.	.	.	.
=16	=16	=16	=16	=16	=16	=16	=16	=16	=16	=16
.	.	.	.	(2c\	-re-	2e\	-re-	.	.	.
.	.	.	.	2B\)	.	2d\	.	.	.	.
.	.	.	.	2c\	-re	2e\	-re	.	.	.
=17	=17	=17	=17	=17	=17	=17	=17	=17	=17	=17
*	*ij	*	*	*	*ij	*	*ij	*	*	*ij
1BB	mi-	1BB	mi-	1G	mi-	1f	mi-	.	1dd	mi-
2C/	-se-	2C/	-se-	2G/	-se-	2e\	-se-	.	2cc\	-se-
=18	=18	=18	=18	=18	=18	=18	=18	=18	=18	=18
1F	-re-	1F	-re-	1G	-re-	1d	-re-	.	1b	-re-
2C/	-re	2C/	-re	2G/	-re	2e\	-re	.	2cc\	-re
*	*Xij	*	*	*	*Xij	*	*Xij	*	*	*Xij
!	!	!	!	!LO:LB:g=original	!	!LO:LB:g=original	!	!	!	!
=19	=19	=19	=19	=19	=19	=19	=19	=19	=19	=19
2F\	no-	2F\	no-	1.G	no-	2f\	no-	.	2dd\	no-
2G\	.	2G\	.	.	.	2e\	.	.	2cc\	.
2GG/	.	2GG/	.	.	.	2d\	.	.	2b\	.
=20	=20	=20	=20	=20	=20	=20	=20	=20	=20	=20
1.C	-bis	1.C	-bis	1.G	-bis	1.e	-bis	.	1.cc	-bis
!LO:PB:g=original	!	!LO:LB:g=original	!	!LO:PB:g=original	!	!	!	!	!LO:PB:g=original	!
=21||	=21||	=21||	=21||	=21||	=21||	=21||	=21||	=21||	=21||	=21||
*M3/2	*	*M3/2	*	*M3/2	*	*M3/2	*	*	*M3/2	*
1.C	A-	1.C	A-	1.e	A-	1.g	A-	.	1.cc	A-
=22	=22	=22	=22	=22	=22	=22	=22	=22	=22	=22
1.GG	-gnus	1.GG	-gnus	1.d	-gnus	1.g	-gnus	.	1.b	-gnus
=23	=23	=23	=23	=23	=23	=23	=23	=23	=23	=23
2C/	De-	2C/	De-	2e\	De-	2g\	De-	.	2cc\	De-
2C/	-i	2C/	-i	2e\	-i	2g\	-i	.	2cc\	-i
2C/	qui	2C/	qui	2e\	qui	2g\	qui	.	2cc\	qui
=24	=24	=24	=24	=24	=24	=24	=24	=24	=24	=24
2D/	tol-	2D/	tol-	2d\	tol-	2f\	tol-	.	2g/	tol-
2BB/	-lis	2BB/	-lis	2d\	-lis	2f\	-lis	.	2g/	-lis
2GG/	pec-	2GG/	pec-	2d\	pec-	2f\	pec-	.	2g/	pec-
=25	=25	=25	=25	=25	=25	=25	=25	=25	=25	=25
1C	-ca-	1C	-ca-	1c	-ca-	1e	-ca-	.	1g	-ca-
2C/	-ta	2C/	-ta	2e\	-ta	2g\	-ta	.	2g/	-ta
=26	=26	=26	=26	=26	=26	=26	=26	=26	=26	=26
2D/	qui	2D/	qui	2d\	qui	2f\	qui	.	2g/	qui
2BB/	tol-	2BB/	tol-	2d\	tol-	2f\	tol-	.	2g/	tol-
2GG/	-lis	2GG/	-lis	2d\	-lis	2f\	-lis	.	2g/	-lis
=27	=27	=27	=27	=27	=27	=27	=27	=27	=27	=27
2C\	pec-	2C\	pec-	2c\	pec-	2e\	pec-	.	2g/	pec-
2C\	-ca-	2C\	-ca-	2c\	-ca-	2e\	-ca-	.	2g/	-ca-
2E\	-ta	2E\	-ta	2e\	-ta	2g\	-ta	.	2cc\	-ta
!	!	!	!	!	!	!LO:LB:g=original	!	!	!	!
=28	=28	=28	=28	=28	=28	=28	=28	=28	=28	=28
2F\	mun-	2F\	mun-	2d\	mun-	2f\	mun-	.	2a\	mun-
2G\	.	2G\	.	2c\	.	2e\	.	.	1g	.
2GG/	.	2GG/	.	2B\	.	2d\	.	.	.	.
=29	=29	=29	=29	=29	=29	=29	=29	=29	=29	=29
1.C	-di	1.C	-di	1.c	-di	1.e	-di	.	1.g	-di
!LO:LB:g=original	!	!LO:LB:g=original	!	!LO:LB:g=original	!	!	!	!	!LO:LB:g=original	!
=30	=30	=30	=30	=30	=30	=30	=30	=30	=30	=30
1C	mi-	1C	mi-	1G	mi-	(2g\	mi-	.	2ee\	mi-
.	.	.	.	.	.	2f\)	.	.	2dd\	.
2C/	-se-	2C/	-se-	2G/	-se-	2e\	-se-	.	2cc\	-se-
=31	=31	=31	=31	=31	=31	=31	=31	=31	=31	=31
2GG/	-re-	1GG	-re-	1B	-re-	(2f\	-re-	.	2dd\	-re-
1GG	-re	.	.	.	.	2e\)	.	.	2cc\	.
.	.	2GG/	-re	2B\	-re	2d\	-re	.	2b\	-re
=32	=32	=32	=32	=32	=32	=32	=32	=32	=32	=32
2C/	no-	2C/	no-	1G	no-	2e\	no-	.	2cc\	no-
1D	.	1D	.	.	.	1f#X	.	.	1dd	.
!	!	!	!	!LO:TX:b:t=P:problem=# below	!	!	!	!	!	!
.	.	.	.	2F#X/	.	.	.	.	.	.
=33	=33	=33	=33	=33	=33	=33	=33	=33	=33	=33
1.GG	-bis	1.GG	-bis	1.G	-bis	1.g	-bis	.	1.dd	-bis
=34	=34	=34	=34	=34	=34	=34	=34	=34	=34	=34
1G	mi-	1G	mi-	1B	mi-	1d	mi-	.	1g	mi-
2GG/	-se-	2GG/	-se-	2c\	-se-	2e\	-se-	.	2g/	-se-
=35	=35	=35	=35	=35	=35	=35	=35	=35	=35	=35
1G	-re-	1G	-re-	1d	-re-	1fn	-re-	.	1g	-re-
2GG/	-re	2GG/	-re	2c\	-re	2e\	-re	.	2g/	-re
=36	=36	=36	=36	=36	=36	=36	=36	=36	=36	=36
*	*ij	*	*ij	*	*ij	*	*ij	*	*	*ij
1GG	mi-	1GG	mi-	1B	mi-	1fn	mi-	.	1g 1dd	mi-
2C/	-se-	2C/	-se-	2G/	-se-	2e\	-se-	.	2cc\	-se-
=37	=37	=37	=37	=37	=37	=37	=37	=37	=37	=37
1GG	-re-	1GG	-re-	1B	-re-	1f	-re-	.	1g 1dd	-re-
2C/	-re	2C/	-re	2G/	-re	2e\	-re	.	2cc\	-re
*	*Xij	*	*Xij	*	*Xij	*	*Xij	*	*	*Xij
=38	=38	=38	=38	=38	=38	=38	=38	=38	=38	=38
2F\	no-	2F\	no-	2A\	no-	2f\	no-	.	2cc\	no-
2G\	.	2G\	.	1B	.	1g	.	.	1dd	.
2GG/	.	2GG/	.	.	.	.	.	.	.	.
=39	=39	=39	=39	=39	=39	=39	=39	=39	=39	=39
1.C	-bis	1.C	-bis	1.c	-bis	1.g	-bis	.	1.ee	-bis
!LO:LB:g=original	!	!LO:LB:g=original	!	!LO:LB:g=original	!	!LO:LB:g=original	!	!	!LO:LB:g=original	!
=40||	=40||	=40||	=40||	=40||	=40||	=40||	=40||	=40||	=40||	=40||
*M2/2	*	*M2/2	*	*M2/2	*	*M2/2	*	*	*M2/2	*
*met(c|)	*	*met(c|)	*	*met(c|)	*	*met(c|)	*	*	*met(c|)	*
!LO:TX:a:t=adag	!	!LO:TX:a:t=ada&colon;	!	!LO:TX:a:t=adag.	!	!LO:TX:a:t=adag	!	!	!	!
2C/	A-	2C/	A-	2e\	A-	2g\	A-	.	2cc\	A-
2C/	-gnus	2C/	-gnus	2e\	-gnus	2g\	-gnus	.	2cc\	-gnus
=41	=41	=41	=41	=41	=41	=41	=41	=41	=41	=41
2C/	De-	2C/	De-	2e\	De-	2g\	De-	.	2cc\	De-
2C/	-i	2C/	-i	2e\	-i	2g\	-i	.	2cc\	-i
=42	=42	=42	=42	=42	=42	=42	=42	=42	=42	=42
2G\	qui	2G\	qui	2d\	qui	2g\	qui	.	2b\	qui
2G\	tol-	2G\	tol-	2d\	tol-	2g\	tol-	.	2b\	tol-
=43	=43	=43	=43	=43	=43	=43	=43	=43	=43	=43
2G\	-lis	2G\	-lis	2d\	-lis	2g\	-lis	.	2b\	-lis
2E\	pec-	2E\	pec-	2e\	pec-	2g\	pec-	.	2cc\	pec-
=44	=44	=44	=44	=44	=44	=44	=44	=44	=44	=44
2F\	-ca-	2F\	-ca-	2c\	-ca-	2a\	-ca-	.	2cc\	-ca-
2G\	-ta	2G\	-ta	2c\	-ta	2g\	-ta	.	2g\	-ta
=45	=45	=45	=45	=45	=45	=45	=45	=45	=45	=45
1A	mun-	1A	mun-	2e\	mun-	1f#X	mun-	.	1cc	mun-
.	.	.	.	2d\	.	.	.	.	.	.
=46	=46	=46	=46	=46	=46	=46	=46	=46	=46	=46
1G	-di	1G	-di.	1d	-di	1g	-di	.	1b	-di
=47||	=47||	=47||	=47||	=47||	=47||	=47||	=47||	=47||	=47||	=47||
!LO:TX:a:i:t=allegro	!	!LO:TX:a:i:t=allegro	!	!LO:TX:a:i:t=allegro	!	!LO:TX:a:i:t=allegro	!	!	!	!
2G\	Do-	2G\	Do-	0r	.	00r	.	.	00r	.
2G\	-na	2G\	-na	.	.	.	.	.	.	.
=48	=48	=48	=48	=48	=48	=48-	=48	=48	=48-	=48
2E\	no-	2E\	no-	.	.	.	.	.	.	.
2C\	-bis	2C/	-bis	.	.	.	.	.	.	.
=49	=49	=49	=49	=49	=49	=49-	=49	=49	=49-	=49
1D	pa-	1D	pa-	1r	.	.	.	.	.	.
!LO:LB:g=original	!	!	!	!	!	!	!	!	!	!
=50	=50	=50	=50	=50	=50	=50-	=50	=50	=50-	=50
2C/	-cem	2C/	-cem	2c\	do-	.	.	.	.	.
4E\	do-	4E\	do-	2c\	-na	.	.	.	.	.
4F#X\	-na	4F#X\	-na	.	.	.	.	.	.	.
!	!	!LO:LB:g=original	!	!	!	!	!	!	!	!
=51	=51	=51	=51	=51	=51	=51-	=51	=51	=51-	=51
4G\	no-	4G\	no-	2B\	no-	0r	.	.	0r	.
4D\	-bis	4D\	-bis	.	.	.	.	.	.	.
[2G\	pa-	[2G\	pa-	2B\	-bis	.	.	.	.	.
!	!	!	!	!LO:LB:g=original	!	!	!	!	!	!
=52	=52	=52	=52	=52	=52	=52-	=52	=52	=52-	=52
2G\]	.	2G\]	.	1A	pa-	.	.	.	.	.
2F#X\	.	2F#X\	.	.	.	.	.	.	.	.
=53	=53	=53	=53	=53	=53	=53	=53	=53	=53	=53
2G\	-cem	2G\	-cem	2G/	-cem	2r	.	.	2r	.
4E\	do-	4E\	do-	4G/	do-	4g\	do-	.	4cc\	do-
4E\	-na	4E\	-na	4G/	-na	4g\	-na	.	4cc\	-na
=54	=54	=54	=54	=54	=54	=54	=54	=54	=54	=54
4Fn\	no-	4Fn\	no-	4A/	no-	4f\	no-	.	4dd\	no-
4F\	-bis	4F\	-bis	4A/	-bis	4f\	-bis	.	4cc\	-bis
2G\	pa-	2G\	pa-	2B/	pa-	2g\	pa-	.	2dd\	pa-
!	!	!	!	!	!	!LO:LB:g=original	!	!	!LO:LB:g=original	!
=55	=55	=55	=55	=55	=55	=55	=55	=55	=55	=55
1C	-cem	1C	-cem	1c	-cem	1g	-cem	.	1cc	-cem
=56	=56	=56	=56	=56	=56	=56	=56	=56	=56	=56
2C/	do-	2C/	Do-	2G/	do-	2e\	do-	.	2cc\	do-
2c\	-na	2c\	-na	2G/	-na	2g\	-na	.	2ee\	-na
=57	=57	=57	=57	=57	=57	=57	=57	=57	=57	=57
2G\	no-	2G\	no-	2G/	no-	2f\	no-	.	2dd\	no-
2C/	-bis	2C/	-bis	2G/	-bis	2e\	-bis	.	2cc\	-bis
=58	=58	=58	=58	=58	=58	=58	=58	=58	=58	=58
!	!	!	!	!LO:TX:t=P:problem=takt 58 zapisany jako repetycja	!	!	!	!	!	!
2GG/	do-	2GG/	Do-	2G/	do-	2d\	do-	.	2b\	do-
2G\	-na	2G\	-na	2G/	-na	2f\	-na	.	2dd\	-na
!LO:LB:g=original	!	!	!	!	!	!	!	!	!	!
=59	=59	=59	=59	=59	=59	=59	=59	=59	=59	=59
2G\	no-	2G\	no-	2G/	no-	2e\	no-	.	2cc\	no-
2GG/	-bis	2GG/	-bis	2G/	-bis	2d\	-bis	.	2b\	-bis
=60	=60	=60	=60	=60	=60	=60	=60	=60	=60	=60
4C\	do-	4C/	do-	4G/	do-	4e\	do-	.	4cc\	do-
4D\	-na	4D/	-na	4G/	-na-	4d\	-na	.	4b\	-na
4E\	no-	4E/	no-	4G/	-no-	4e\	no-	.	4cc\	no-
4F\	-bis	4F/	-bis	4G/	-bis	4f\	-bis	.	4dd\	-bis
!	!	!LO:LB:g=original	!	!	!	!	!	!	!	!
=61	=61	=61	=61	=61	=61	=61	=61	=61	=61	=61
2G\	pa-	2G\	pa-	1G	pa-	2e\	pa-	.	2cc\	pa-
2GG/	.	2GG/	.	.	.	2d\	.	.	2b\	.
=62	=62	=62	=62	=62	=62	=62	=62	=62	=62	=62
1C	-cem	1C	-cem	1G	-cem	1e	-cem	.	1cc	-cem
=63	=63	=63	=63	=63	=63	=63	=63	=63	=63	=63
4G\	do-	4G\	Do-	4G/	do-	4g\	do-	.	4gg\	do-
4G\	-na	4G\	-na	4G/	-na	4g\	-na	.	4gg\	-na
4E\	no-	4E\	no-	4E/	no-	4e\	no-	.	4ee\	no-
4C\	-bis	4C\	-bis	4c\	-bis	4c\	-bis	.	4cc\	-bis
!	!	!	!	!LO:LB:g=original	!	!	!	!	!LO:LB:g=original	!
=64	=64	=64	=64	=64	=64	=64	=64	=64	=64	=64
2BB/	pa-	2BB/	pa-	2B\	pa-	2B/	pa-	.	2b\	pa-
2C/	-cem	2C/	-cem	2c\	-cem	2c/	-cem	.	2cc\	-cem
!	!	!	!	!	!	!LO:LB:g=original	!	!	!	!
=65	=65	=65	=65	=65	=65	=65	=65	=65	=65	=65
4G\	do-	4G\	do-	4G/	do-	4g\	do-	.	4gg\	do-
4G\	-na	4G\	-na	4G/	-na	4g\	-na	.	4gg\	-na
4E\	no-	4E\	no-	4E/	no-	4e\	no-	.	4ee\	no-
4C\	-bis	4C\	-bis	4G/	-bis	4c\	-bis	.	4cc\	-bis
=66	=66	=66	=66	=66	=66	=66	=66	=66	=66	=66
2GG/	pa-	2GG/	pa-	2G/	pa-	2d\	pa-	.	2b\	pa-
2C/	-cem	2C/	-cem	2G/	-cem	2e\	-cem	.	2cc\	-cem
=67	=67	=67	=67	=67	=67	=67	=67	=67	=67	=67
2C/	do-	2C/	do-	2G/	do-	2e\	do-	.	2cc\	do-
2c\	-na	2c\	-na	2G/	-na	2g\	-na	.	2ee\	-na
!LO:LB:g=original	!	!	!	!	!	!	!	!	!	!
=68	=68	=68	=68	=68	=68	=68	=68	=68	=68	=68
2G\	no-	2G\	no-	2G/	no-	2f\	no-	.	2dd\	no-
2C/	-bis	2C/	-bis	2G/	-bis	2e\	-bis	.	2cc\	-bis
=69	=69	=69	=69	=69	=69	=69	=69	=69	=69	=69
2GG/	do-	2GG/	do-	2G/	do-	2d\	do-	.	2b\	do-
2G\	-na	2G\	-na	2G/	-na	2f\	-na	.	2dd\	-na
=70	=70	=70	=70	=70	=70	=70	=70	=70	=70	=70
2G\	no-	2G\	no-	2G/	no-	2e\	no-	.	2cc\	no-
2GG/	-bis	2GG/	-bis	2G/	-bis	2d\	-bis	.	2b\	-bis
!	!	!LO:LB:g=original	!	!	!	!	!	!	!	!
=71	=71	=71	=71	=71	=71	=71	=71	=71	=71	=71
4C\	do-	4C/	do-	4G/	do-	4e\	do-	.	4cc\	do-
4D\	-na	4D/	-na	4G/	-na	4d\	-na	.	4b\	-na
4E\	no-	4E/	no-	4G/	no-	4e\	no-	.	4cc\	no-
4F\	-bis	4F/	-bis	4G/	-bis	4f\	-bis	.	4dd\	-bis
=72	=72	=72	=72	=72	=72	=72	=72	=72	=72	=72
2G\	pa-	2G\	pa-	1G	pa-	2e\	pa-	.	2cc\	pa-
2GG/	.	2GG/	.	.	.	2d\	.	.	2b\	.
=73	=73	=73	=73	=73	=73	=73	=73	=73	=73	=73
1C	-cem	1C	-cem	1G	-cem	1e	-cem	.	1cc	-cem
!	!	!	!	!LO:LB:g=original	!	!LO:LB:g=original	!	!	!LO:LB:g=original	!
=74	=74	=74	=74	=74	=74	=74	=74	=74	=74	=74
4G\	do-	4G\	do-	4B\	do-	4d\	do-	.	4b\	do-
4G\	-na	4G\	-na	4B\	-na	4e\	-na	.	4cc\	-na
4G\	no-	4G\	no-	4B\	no-	4f\	no-	.	4dd\	no-
4GG/	-bis	4GG/	-bis	4B\	-bis	4d\	-bis	.	4b\	-bis
=75	=75	=75	=75	=75	=75	=75	=75	=75	=75	=75
4C\	do-	4C\	do-	4G/	do-	4e\	do-	.	4cc\	do-
4G\	-na	4G\	-na	4G/	-na	4f\	-na	.	4dd\	-na
4E\	no-	4E\	no-	4G/	no-	4g\	no-	.	4ee\	no-
4C\	-bis	4C\	-bis	4G/	-bis	4e\	-bis	.	4cc\	-bis
=76	=76	=76	=76	=76	=76	=76	=76	=76	=76	=76
2G\	pa-	2G\	pa-	1B	pa-	4f\	pa-	[[do-	4dd\	pa-
.	.	.	.	.	.	4d\	.	-na	4b\	.
2GG/	.	2GG/	.	.	.	4e\	.	no-	4cc\	.
.	.	.	.	.	.	4f\	.	-bis]]	4dd\	.
=77	=77	=77	=77	=77	=77	=77	=77	=77	=77	=77
1C	-cem	1C	-cem	1G	-cem	1e	-cem	.	1cc	-cem-
!LO:LB:g=original	!	!	!	!	!	!	!	!	!	!
=78	=78	=78	=78	=78	=78	=78	=78	=78	=78	=78
!LO:N:vis=0	!	!LO:N:vis=0	!	!LO:N:vis=0	!	!LO:N:vis=0	!	!	!LO:N:vis=0	!
1F	pa-	1F	pa-	1A	pa-	1f	pa-	.	1cc	.
=79	=79	=79	=79	=79	=79	=79	=79	=79	=79	=79
!LO:N:vis=0	!	!LO:N:vis=0	!	!LO:N:vis=0	!	!LO:N:vis=0	!	!	!LO:N:vis=0	!
1C	-cem	1C	-cem	1G	-cem	1e	-cem	.	1cc	.
!LO:PB:g=original	!	!LO:LB:g=original	!	!LO:PB:g=original	!	!LO:PB:g=original	!	!	!LO:LB:g=original	!
==	==	==	==	==	==	==	==	==	==	==
*-	*-	*-	*-	*-	*-	*-	*-	*-	*-	*-
!!!system-decoration: [(s1,s2,s3,s4,s5)]
!!!ENC: Marta Chmielewska
!!!END: 2021-08-07
!!!ENC: Anastazja Marusiak
!!!END: 2021-07-14
